src/assets/images/newdossier.svg

<svg height="60" viewBox="0 0 60 60" width="60" xmlns="http://www.w3.org/2000/svg"><g id="Page-1" fill="none" fill-rule="evenodd"><g id="072---Edit-Folder" fill="rgb(0,0,0)" fill-rule="nonzero"><path id="Shape" d="m.5 50.864 15.161 8.817c.9293794.4635481 2.0324014.4134357 2.9159191-.132476.8835176-.5459117 1.4218349-1.509957 1.4230809-2.548524v-6h3.526l-2.339 6.237c-.2763078.7347275-.0972678 1.5631593.4577864 2.1182136.5550543.5550542 1.3834861.7340942 2.1182136.4577864l9.254-3.471c.1532601-.0642163.2915129-.159563.406-.28l25.405-25.4c.7501901-.7501514 1.1716458-1.7675983 1.1716458-2.8285s-.4214557-2.0783486-1.1716458-2.8285l-2.828-2.833c-1.5836906-1.5092067-4.0733094-1.5092067-5.657 0l-4.949 4.949-3.016 3.015-.984-1.72c-.259765-.4484109-.395736-.9577846-.394-1.476v-22.94c0-2.209139-1.790861-4-4-4h-36c-.55228475 0-1 .44771525-1 1v49c.00072257.3565418.19122471.6857295.5.864zm22.564 7.075 2.925-7.8 4.874 4.874zm9.6-3.948-2.12-2.121 8.485-8.485c.3789722-.3923789.3735524-1.0160848-.0121814-1.4018186s-1.0094397-.3911536-1.4018186-.0121814l-8.485 8.485-2.122-2.121 19.092-19.093 2.121 2.122-7.071 7.072c-.2599566.2510745-.3642126.6228779-.2726972.9725073.0915155.3496295.3645604.6226744.7141899.7141899.3496294.0915154.7214328-.0127406.9725073-.2726972l7.071-7.072 2.122 2.122zm19.091-30.4c.7915033-.7559402 2.0374967-.7559402 2.829 0l2.828 2.828c.375248.375096.5860729.8839266.5860729 1.4145s-.2108249 1.039404-.5860729 1.4145l-1.412 1.409-5.657-5.657zm-2.828 2.828 5.657 5.657-1.415 1.414-2.828-2.828-2.828-2.829zm-11.927-24.419c1.1045695 0 2 .8954305 2 2v22.94c-.0018922.8696325.2265146 1.7242605.662 2.477l1.25 2.186-16.025 16.025c-.1423145.1660534-.2479532.3602922-.31.57l-.3.8h-4.277v-3.422c-.0000766-.1881975.0529555-.3725967.153-.532l2.388-3.8c.2997719-.4776339.4588536-1.0300875.459-1.594v-24.1c.0041084-1.44351-.7738959-2.776029-2.033-3.482l-16.422-10.068zm-35 .786 17.963 11.014c.6380308.3505171 1.0352181 1.0200286 1.037 1.748v24.1c.000265.1885374-.0527745.3733089-.153.533l-2.388 3.8c-.3004071.4795623-.4594948 1.0341164-.459 1.6v11.419c.0029357.3473579-.1771262.6706335-.474.851-.2731695.1801496-.6195014.2080675-.918.074l-14.608-8.5z"/><path id="Shape" d="m5 8c-.55228475 0-1 .44771525-1 1v2c0 .5522847.44771525 1 1 1s1-.4477153 1-1v-2c0-.55228475-.44771525-1-1-1z"/><path id="Shape" d="m5 15c-.55228475 0-1 .4477153-1 1v18c0 .5522847.44771525 1 1 1s1-.4477153 1-1v-18c0-.5522847-.44771525-1-1-1z"/></g></g></svg>

<?xml version="1.0" encoding="UTF-8"?>
<svg width="60px" height="60px" viewBox="0 0 60 60" version="1.1" xmlns="http://www.w3.org/2000/svg" xmlns:xlink="http://www.w3.org/1999/xlink" style="background: #FFFFFF;">
    <!-- Generator: Sketch 52.6 (67491) - http://www.bohemiancoding.com/sketch -->
    <title>newdossier</title>
    <desc>Created with Sketch.</desc>
    <g id="Page-1" stroke="none" stroke-width="1" fill="none" fill-rule="evenodd">
        <g id="newdossier" fill="#000000">
            <path d="M0.5,50.864 L15.661,59.681 C16.5903794,60.1445481 17.6934014,60.0944357 18.5769191,59.548524 C19.4604367,59.0026123 19.998754,58.038567 20,57 L20,51 L23.526,51 L21.187,57.237 C20.9106922,57.9717275 21.0897322,58.8001593 21.6447864,59.3552136 C22.1998407,59.9102678 23.0282725,60.0893078 23.763,59.813 L33.017,56.342 C33.1702601,56.2777837 33.3085129,56.182437 33.423,56.062 L58.828,30.662 C59.5781901,29.9118486 59.9996458,28.8944017 59.9996458,27.8335 C59.9996458,26.7725983 59.5781901,25.7551514 58.828,25.005 L56,22.172 C54.4163094,20.6627933 51.9266906,20.6627933 50.343,22.172 L45.394,27.121 L42.378,30.136 L41.394,28.416 C41.134235,27.9675891 40.998264,27.4582154 41,26.94 L41,4 C41,1.790861 39.209139,3.55271368e-15 37,3.55271368e-15 L1,3.55271368e-15 C0.44771525,3.55271368e-15 -7.10542736e-15,0.44771525 -7.10542736e-15,1 L-7.10542736e-15,50 C0.00072257,50.3565418 0.19122471,50.6857295 0.5,50.864 Z M23.064,57.939 L25.989,50.139 L30.863,55.013 L23.064,57.939 Z M32.664,53.991 L30.544,51.87 L39.029,43.385 C39.4079722,42.9926211 39.4025524,42.3689152 39.0168186,41.9831814 C38.6310848,41.5974476 38.0073789,41.5920278 37.615,41.971 L29.13,50.456 L27.008,48.335 L46.1,29.242 L48.221,31.364 L41.15,38.436 C40.8900434,38.6870745 40.7857874,39.0588779 40.8773028,39.4085073 C40.9688183,39.7581368 41.2418632,40.0311817 41.5914927,40.1226972 C41.9411221,40.2142126 42.3129255,40.1099566 42.564,39.85 L49.635,32.778 L51.757,34.9 L32.664,53.991 Z M51.755,23.591 C52.5465033,22.8350598 53.7924967,22.8350598 54.584,23.591 L57.412,26.419 C57.787248,26.794096 57.9980729,27.3029266 57.9980729,27.8335 C57.9980729,28.3640734 57.787248,28.872904 57.412,29.248 L56,30.657 L50.343,25 L51.755,23.591 Z M48.927,26.419 L54.584,32.076 L53.169,33.49 L50.341,30.662 L47.513,27.833 L48.927,26.419 Z M37,2 C38.1045695,2 39,2.8954305 39,4 L39,26.94 C38.9981078,27.8096325 39.2265146,28.6642605 39.662,29.417 L40.912,31.603 L24.887,47.628 C24.7446855,47.7940534 24.6390468,47.9882922 24.577,48.198 L24.277,48.998 L20,48.998 L20,45.576 C19.9999234,45.3878025 20.0529555,45.2034033 20.153,45.044 L22.541,41.244 C22.8407719,40.7663661 22.9998536,40.2139125 23,39.65 L23,15.55 C23.0041084,14.10649 22.2261041,12.773971 20.967,12.068 L4.545,2 L37,2 Z M2,2.786 L19.963,13.8 C20.6010308,14.1505171 20.9982181,14.8200286 21,15.548 L21,39.648 C21.000265,39.8365374 20.9472255,40.0213089 20.847,40.181 L18.459,43.981 C18.1585929,44.4605623 17.9995052,45.0151164 18,45.581 L18,57 C18.0029357,57.3473579 17.8228738,57.6706335 17.526,57.851 C17.2528305,58.0311496 16.9064986,58.0590675 16.608,57.925 L2,49.425 L2,2.786 Z" id="Shape" fill-rule="nonzero"></path>
            <path d="M5,8 C4.44771525,8 4,8.44771525 4,9 L4,11 C4,11.5522847 4.44771525,12 5,12 C5.55228475,12 6,11.5522847 6,11 L6,9 C6,8.44771525 5.55228475,8 5,8 Z" id="Shape"></path>
            <path d="M5,15 C4.44771525,15 4,15.4477153 4,16 L4,34 C4,34.5522847 4.44771525,35 5,35 C5.55228475,35 6,34.5522847 6,34 L6,16 C6,15.4477153 5.55228475,15 5,15 Z" id="Shape"></path>
        </g>
    </g>
</svg>
